front/public/static/landing/logos/white/kyriba.svg

<svg fill="none" height="300" viewBox="0 0 600 300" width="600" xmlns="http://www.w3.org/2000/svg" xmlns:xlink="http://www.w3.org/1999/xlink"><clipPath id="a"><path d="m54 66h493v168h-493z"/></clipPath><g clip-path="url(#a)"><circle cx="138" cy="152" fill="#1c2529" r="68"/><g fill="#fff"><path d="m392.272 143.171c-9.378 0-12.424 8.41-12.424 19.701l.182 21.668c0 .961-.749 1.736-1.701 1.736h-6.655c-.931 0-1.702-.779-1.702-1.715v-48.296c0-.936.774-1.715 1.702-1.715h6.655c.931 0 1.701.779 1.701 1.715v8.228c2.339-6.877 6.245-9.943 13.466-9.943h7.633c.932 0 1.7.779 1.7 1.715v5.187c0 .937-.771 1.716-1.7 1.716z"/><path d="m305.499 113.877h7.88c1.478 0 2.248 1.76 1.25 2.879l-25.139 27.746 28.342 39.061c.819 1.144 0 2.719-1.386 2.719h-8.812c-.546 0-1.067-.274-1.386-.73l-23.935-33.919-13.67 14.878v18.035c0 .936-.774 1.715-1.705 1.715h-6.655c-.931 0-1.705-.776-1.705-1.715v-68.954c0-.936.774-1.715 1.705-1.715h6.655c.931 0 1.705.779 1.705 1.715v33.551c0 2.378-.725 5.485-1.544 7.863h.203c.819-2.171 2.363-4.959 3.998-6.927l31.682-35.083c.637-.709 1.565-1.119 2.517-1.119z"/><path d="m356.554 134.565h7.106c1.205 0 2.02 1.235 1.59 2.353l-22.482 56.682c-4.11 11.472-12.536 14.468-18.281 14.468h-7.334c-.932 0-1.705-.775-1.705-1.716v-4.846c0-.937.773-1.716 1.705-1.716h3.542c2.567 0 9.358-1.346 11.514-7.13l2.682-8.274-18.802-47.495c-.455-1.119.385-2.354 1.589-2.354h7.11c.704 0 1.341.435 1.589 1.098l12.831 32.821c.815 2.378 1.34 5.279 1.34 7.656h.203c0-2.49.41-5.278 1.226-7.656l13.033-32.842c.249-.642.886-1.073 1.59-1.073z"/><path d="m407.874 120.96v-5.37c0-.936.771-1.715 1.7-1.715h6.972c.933 0 1.704.779 1.704 1.715v5.37c0 .936-.775 1.715-1.704 1.715h-6.972c-.932 0-1.7-.779-1.7-1.715zm10.171 15.313v48.271c0 .936-.774 1.715-1.703 1.715h-6.567c-.929 0-1.7-.775-1.7-1.715v-48.271c0-.937.774-1.715 1.7-1.715h6.567c.929 0 1.703.775 1.703 1.715z"/><path d="m458.696 133.942c15.213.091 24.345 8.571 24.345 26.466 0 17.894-9.152 26.466-24.345 26.466-6.882 0-15.216-2.995-19.941-7.748-1.633-1.645-2.77-4.661-3.498-6.832l-.205.116c.728 2.171 1.342 5.166 1.342 7.544v4.594c0 .937-.775 1.716-1.707 1.716h-6.654c-.932 0-1.7-.775-1.7-1.716v-68.953c0-.937.771-1.715 1.7-1.715h6.654c.932 0 1.707.778 1.707 1.715v25.691c0 2.378-.614 5.279-1.342 7.656h.205c.724-2.171 1.838-5.166 3.498-6.832 4.722-4.959 13.15-8.158 19.941-8.158zm14.378 26.466c0-11.999-5.45-17.782-17.782-18.102-9.038 0-18.892 6.833-18.892 18.102s9.854 17.691 18.892 17.691c12.741 0 17.782-5.486 17.782-17.691z"/><path d="m542.201 177.883h-.047c-2.157 0-3.086-.73-3.086-3.315v-20.068c0-15.292-12.445-20.252-24.982-20.252-10.628 0-21.712 3.999-24.049 15.201-.205.982.452 1.964 1.452 2.08l5.906.799c.838.116 1.68-.389 1.861-1.209 1.637-6.787 7.425-8.709 14.83-8.709 9.562 0 14.603 2.904 14.921 10.855 0 4.044-9.97 3.633-20.146 3.84-10.286.298-20.551 3.406-20.551 14.468 0 5.896 3.907 10.238 9.242 12.732 5.242 2.469 9.854 2.262 11.105 2.262 7.606 0 17.667-3.108 20.347-13.03v4.549c0 4.549 3.384 8.158 8.629 8.158h4.564c.929 0 1.701-.754 1.701-1.715v-4.938c0-.937-.775-1.715-1.701-1.715zm-13.194-9.919c0 4.226-3.407 7.429-7.928 9.301-4.518 1.852-8.22 2.056-10.172 2.056-4.202 0-12.332-1.442-12.332-7.955 0-12.503 21.894-4.959 30.432-10.238z"/></g><path clip-rule="evenodd" d="m221.687 150.001c0 46.392-37.538 84-83.843 84-46.3059 0-83.844-37.608-83.844-84 0-46.391 37.5381-83.9995 83.844-83.9995 46.305 0 83.843 37.6085 83.843 83.9995zm-73.946 53.124c.836 1.752 2.579 2.776 4.397 2.776.704 0 1.42-.154 2.096-.477 2.426-1.161 3.454-4.073 2.295-6.504l-17.181-36.041c-3.91-8.204-3.91-17.615.002-25.817l17.179-36.022c1.159-2.4308.131-5.3427-2.295-6.5035-2.424-1.1609-5.332-.1317-6.491 2.2989l-17.179 36.0216c-2.533 5.311-3.872 11.227-3.872 17.113 0 5.885 1.337 11.803 3.869 17.113zm-24.046 2.818c-2.221-.001-4.226-1.534-4.74-3.795l-8.976-39.438c-1.897-8.334-1.895-17.144.004-25.477l8.972-39.3792c.599-2.6257 3.208-4.2694 5.829-3.6695s4.262 3.2143 3.663 5.8397l-8.973 39.38c-1.575 6.914-1.575 14.223-.003 21.137l8.976 39.438c.597 2.626-1.043 5.242-3.664 5.84-.364.083-.729.124-1.088.124zm-28.4198-20.054c-2.689 0-4.8683-2.184-4.8683-4.878v-62.081c0-2.694 2.1793-4.877 4.8683-4.877s4.8688 2.183 4.8688 4.877v62.081c0 2.694-2.1798 4.878-4.8688 4.878zm85.2838-.001c-.998 0-2.006-.307-2.874-.943l-24.138-17.718c-5.55-4.074-8.734-10.363-8.734-17.257 0-6.893 3.184-13.182 8.734-17.256l24.138-17.719c2.168-1.592 5.216-1.122 6.804 1.052 1.589 2.174 1.12 5.225-1.049 6.817l-24.138 17.719c-3.02 2.216-4.752 5.638-4.752 9.387s1.732 7.172 4.752 9.388l24.138 17.718c2.169 1.592 2.638 4.644 1.049 6.817-.954 1.304-2.432 1.995-3.93 1.995z" fill="#e6ff00" fill-rule="evenodd"/></g></svg>

<svg width="600" height="300" viewBox="0 0 600 300" fill="none" xmlns="http://www.w3.org/2000/svg">
<g clip-path="url(#clip0_1921_20178)">
<circle cx="138" cy="152" r="68" fill="#1C2529"/>
<path d="M392.272 143.171C382.894 143.171 379.848 151.581 379.848 162.872L380.03 184.54C380.03 185.501 379.281 186.276 378.329 186.276H371.674C370.743 186.276 369.972 185.497 369.972 184.561V136.265C369.972 135.329 370.746 134.55 371.674 134.55H378.329C379.26 134.55 380.03 135.329 380.03 136.265V144.493C382.369 137.616 386.275 134.55 393.496 134.55H401.129C402.061 134.55 402.829 135.329 402.829 136.265V141.452C402.829 142.389 402.058 143.168 401.129 143.168L392.272 143.171Z" fill="white"/>
<path d="M305.499 113.877H313.379C314.857 113.877 315.627 115.637 314.629 116.756L289.49 144.502L317.832 183.563C318.651 184.707 317.832 186.282 316.446 186.282H307.634C307.088 186.282 306.567 186.008 306.248 185.552L282.313 151.633L268.643 166.511V184.546C268.643 185.482 267.869 186.261 266.938 186.261H260.283C259.352 186.261 258.578 185.485 258.578 184.546V115.592C258.578 114.656 259.352 113.877 260.283 113.877H266.938C267.869 113.877 268.643 114.656 268.643 115.592V149.143C268.643 151.521 267.918 154.628 267.099 157.006H267.302C268.121 154.835 269.665 152.047 271.3 150.079L302.982 114.996C303.619 114.287 304.547 113.877 305.499 113.877Z" fill="white"/>
<path d="M356.554 134.565H363.66C364.865 134.565 365.68 135.8 365.25 136.918L342.768 193.6C338.658 205.072 330.232 208.068 324.487 208.068H317.153C316.221 208.068 315.448 207.293 315.448 206.352V201.506C315.448 200.569 316.221 199.79 317.153 199.79H320.695C323.262 199.79 330.053 198.444 332.209 192.66L334.891 184.386L316.089 136.891C315.634 135.772 316.474 134.537 317.678 134.537H324.788C325.492 134.537 326.129 134.972 326.377 135.635L339.208 168.456C340.023 170.834 340.548 173.735 340.548 176.112H340.751C340.751 173.622 341.161 170.834 341.977 168.456L355.01 135.614C355.259 134.972 355.896 134.541 356.6 134.541L356.554 134.565Z" fill="white"/>
<path d="M407.874 120.96V115.59C407.874 114.654 408.645 113.875 409.574 113.875H416.546C417.479 113.875 418.25 114.654 418.25 115.59V120.96C418.25 121.896 417.475 122.675 416.546 122.675H409.574C408.642 122.675 407.874 121.896 407.874 120.96ZM418.045 136.273V184.544C418.045 185.48 417.271 186.259 416.342 186.259H409.775C408.846 186.259 408.075 185.484 408.075 184.544V136.273C408.075 135.336 408.849 134.558 409.775 134.558H416.342C417.271 134.558 418.045 135.333 418.045 136.273Z" fill="white"/>
<path d="M458.696 133.942C473.909 134.033 483.041 142.513 483.041 160.408C483.041 178.302 473.889 186.874 458.696 186.874C451.814 186.874 443.48 183.879 438.755 179.126C437.122 177.481 435.985 174.465 435.257 172.294L435.052 172.41C435.78 174.581 436.394 177.576 436.394 179.954V184.548C436.394 185.485 435.619 186.264 434.687 186.264H428.033C427.101 186.264 426.333 185.489 426.333 184.548V115.595C426.333 114.658 427.104 113.88 428.033 113.88H434.687C435.619 113.88 436.394 114.658 436.394 115.595V141.286C436.394 143.664 435.78 146.565 435.052 148.942H435.257C435.981 146.771 437.095 143.776 438.755 142.11C443.477 137.151 451.905 133.952 458.696 133.952V133.942ZM473.074 160.408C473.074 148.409 467.624 142.626 455.292 142.306C446.254 142.306 436.4 149.139 436.4 160.408C436.4 171.677 446.254 178.099 455.292 178.099C468.033 178.099 473.074 172.613 473.074 160.408Z" fill="white"/>
<path d="M542.201 177.883H542.154C539.997 177.883 539.068 177.153 539.068 174.568V154.5C539.068 139.208 526.623 134.248 514.086 134.248C503.458 134.248 492.374 138.247 490.037 149.449C489.832 150.431 490.489 151.413 491.489 151.529L497.395 152.328C498.233 152.444 499.075 151.939 499.256 151.119C500.893 144.332 506.681 142.41 514.086 142.41C523.648 142.41 528.689 145.314 529.007 153.265C529.007 157.309 519.037 156.898 508.861 157.105C498.575 157.403 488.31 160.511 488.31 171.573C488.31 177.469 492.217 181.811 497.552 184.305C502.794 186.774 507.406 186.567 508.657 186.567C516.263 186.567 526.324 183.459 529.004 173.537V178.086C529.004 182.635 532.388 186.244 537.633 186.244H542.197C543.126 186.244 543.898 185.49 543.898 184.529V179.591C543.898 178.654 543.123 177.876 542.197 177.876L542.201 177.883ZM529.007 167.964C529.007 172.19 525.6 175.393 521.079 177.265C516.561 179.117 512.859 179.321 510.907 179.321C506.705 179.321 498.575 177.879 498.575 171.366C498.575 158.863 520.469 166.407 529.007 161.128V167.964Z" fill="white"/>
<path fill-rule="evenodd" clip-rule="evenodd" d="M221.687 150.001C221.687 196.393 184.149 234.001 137.844 234.001C91.5381 234.001 54 196.393 54 150.001C54 103.61 91.5381 66.0015 137.844 66.0015C184.149 66.0015 221.687 103.61 221.687 150.001ZM147.741 203.125C148.577 204.877 150.32 205.901 152.138 205.901C152.842 205.901 153.558 205.747 154.234 205.424C156.66 204.263 157.688 201.351 156.529 198.92L139.348 162.879C135.438 154.675 135.438 145.264 139.35 137.062L156.529 101.04C157.688 98.6092 156.66 95.6973 154.234 94.5365C151.81 93.3756 148.902 94.4048 147.743 96.8354L130.564 132.857C128.031 138.168 126.692 144.084 126.692 149.97C126.692 155.855 128.029 161.773 130.561 167.083L147.741 203.125ZM123.695 205.943C121.474 205.942 119.469 204.409 118.955 202.148L109.979 162.71C108.082 154.376 108.084 145.566 109.983 137.233L118.955 97.8538C119.554 95.2281 122.163 93.5844 124.784 94.1843C127.405 94.7842 129.046 97.3986 128.447 100.024L119.474 139.404C117.899 146.318 117.899 153.627 119.471 160.541L128.447 199.979C129.044 202.605 127.404 205.221 124.783 205.819C124.419 205.902 124.054 205.943 123.695 205.943ZM95.2752 185.889C92.5862 185.889 90.4069 183.705 90.4069 181.011V118.93C90.4069 116.236 92.5862 114.053 95.2752 114.053C97.9642 114.053 100.144 116.236 100.144 118.93V181.011C100.144 183.705 97.9642 185.889 95.2752 185.889ZM180.559 185.888C179.561 185.888 178.553 185.581 177.685 184.945L153.547 167.227C147.997 163.153 144.813 156.864 144.813 149.97C144.813 143.077 147.997 136.788 153.547 132.714L177.685 114.995C179.853 113.403 182.901 113.873 184.489 116.047C186.078 118.221 185.609 121.272 183.44 122.864L159.302 140.583C156.282 142.799 154.55 146.221 154.55 149.97C154.55 153.719 156.282 157.142 159.302 159.358L183.44 177.076C185.609 178.668 186.078 181.72 184.489 183.893C183.535 185.197 182.057 185.888 180.559 185.888Z" fill="#E6FF00"/>
</g>
<defs>
<clipPath id="clip0_1921_20178">
<rect width="493" height="168" fill="white" transform="translate(54 66)"/>
</clipPath>
</defs>
</svg>
